public/github.svg

<svg width="32" height="32" viewBox="0 0 32 32" fill="none" xmlns="http://www.w3.org/2000/svg">
<path d="M26.7362 6.77676C27.8493 4.70948 26.5771 2.0061 26.5771 2.0061C23.7147 2.0061 21.6474 3.91435 21.6474 3.91435C20.5343 3.27826 16.8768 3.27826 16.8768 3.27826C16.8768 3.27826 13.2193 3.27826 12.1061 3.91435C12.1061 3.91435 10.0388 2.0061 7.17644 2.0061C7.17644 2.0061 5.90425 4.70948 7.01741 6.77676C7.01741 6.77676 4.47306 9.1621 5.42719 14.2508C6.32378 19.0326 10.5159 20.2936 13.2192 20.2936C13.2192 20.2936 12.1061 21.2478 12.2651 22.838C12.2651 22.838 10.6749 23.7921 9.08469 23.156C7.49447 22.5199 6.69934 20.9297 6.69934 20.9297C6.69934 20.9297 5.10912 18.8624 3.51891 19.6575C3.51891 19.6575 3.04184 20.1346 4.79109 20.9297C4.79109 20.9297 6.06328 22.8379 6.54034 23.9511C7.01741 25.0643 9.56175 26.0184 12.1061 25.3823V29.0398C12.1061 29.0398 12.1061 29.3578 11.47 29.5169C10.8339 29.6759 10.8339 29.9939 11.152 29.9939H22.6016C22.9196 29.9939 22.9196 29.6759 22.2835 29.5169C21.6474 29.3578 21.6474 29.0398 21.6474 29.0398V25.3823C21.6474 25.3823 21.6614 23.4751 21.6474 22.8379C21.6125 21.2402 20.5343 20.2936 20.5343 20.2936C23.2377 20.2936 27.4298 19.0326 28.3263 14.2508C29.2805 9.1621 26.7362 6.77676 26.7362 6.77676Z" fill="#536471"/>
</svg>

<svg width="32" height="32" fill="none" xmlns="http://www.w3.org/2000/svg"><path d="M26.736 6.777c1.113-2.068-.159-4.77-.159-4.77-2.862 0-4.93 1.907-4.93 1.907-1.113-.636-4.77-.636-4.77-.636s-3.658 0-4.77.636c0 0-2.068-1.908-4.93-1.908 0 0-1.273 2.703-.16 4.77 0 0-2.544 2.386-1.59 7.475.897 4.782 5.089 6.043 7.792 6.043 0 0-1.113.954-.954 2.544 0 0-1.59.954-3.18.318-1.59-.636-2.386-2.226-2.386-2.226s-1.59-2.068-3.18-1.273c0 0-.477.478 1.272 1.273 0 0 1.272 1.908 1.75 3.021.476 1.113 3.02 2.067 5.565 1.431v3.658s0 .318-.636.477c-.636.159-.636.477-.318.477h11.45c.318 0 .318-.318-.319-.477-.636-.16-.636-.477-.636-.477v-3.658s.014-1.907 0-2.544c-.034-1.598-1.113-2.544-1.113-2.544 2.704 0 6.896-1.261 7.792-6.043.954-5.089-1.59-7.474-1.59-7.474z" fill="#536471"/></svg>
